dist/assets/group-782.svg

<svg width="717" height="452" viewBox="0 0 717 452" fill="none" xmlns="http://www.w3.org/2000/svg">
<path d="M717 50C717 22.3858 694.614 0 667 0H40.5853V452H667C694.614 452 717 429.614 717 402V50Z" fill="white"/>
<g opacity="0.1">
<mask id="mask0_243_156" style="mask-type:alpha" maskUnits="userSpaceOnUse" x="566" y="0" width="152" height="391">
<path d="M566.92 50C566.92 22.6619 589.082 0.5 616.42 0.5H716.5V389.888H616.42C589.082 389.888 566.92 367.726 566.92 340.388V50Z" fill="url(#paint0_linear_243_156)" stroke="#6246E5"/>
</mask>
<g mask="url(#mask0_243_156)">
<path d="M754.897 198.036C754.897 226.281 749.016 251.826 739.532 270.292C730.034 288.785 717.003 300.045 702.749 300.045C688.495 300.045 675.464 288.785 665.966 270.292C656.482 251.826 650.601 226.281 650.601 198.036C650.601 169.792 656.482 144.246 665.966 125.78C675.464 107.287 688.495 96.0273 702.749 96.0273C717.003 96.0273 730.034 107.287 739.532 125.78C749.016 144.246 754.897 169.792 754.897 198.036Z" stroke="#6246E5"/>
<path d="M756.975 187.245C756.975 218.842 750.396 247.422 739.784 268.085C729.158 288.774 714.568 301.393 698.593 301.393C682.617 301.393 668.027 288.774 657.401 268.085C646.789 247.422 640.21 218.842 640.21 187.245C640.21 155.649 646.789 127.068 657.401 106.405C668.027 85.716 682.617 73.0972 698.593 73.0972C714.568 73.0972 729.158 85.716 739.784 106.405C750.396 127.068 756.975 155.649 756.975 187.245Z" stroke="#6246E5"/>
<path d="M759.053 178.478C759.053 213.054 751.854 244.333 740.239 266.948C728.61 289.59 712.635 303.417 695.129 303.417C677.623 303.417 661.648 289.59 650.019 266.948C638.404 244.333 631.205 213.054 631.205 178.478C631.205 143.902 638.404 112.624 650.019 90.0083C661.648 67.3664 677.623 53.5398 695.129 53.5398C712.635 53.5398 728.61 67.3664 740.239 90.0083C751.854 112.624 759.053 143.902 759.053 178.478Z" stroke="#6246E5"/>
<path d="M760.439 165.664C760.439 202.848 752.697 236.486 740.204 260.811C727.698 285.161 710.51 300.045 691.665 300.045C672.82 300.045 655.633 285.161 643.126 260.811C630.634 236.486 622.892 202.848 622.892 165.664C622.892 128.481 630.634 94.8426 643.126 70.5183C655.633 46.1678 672.82 31.2844 691.665 31.2844C710.51 31.2844 727.698 46.1678 740.204 70.5183C752.697 94.8426 760.439 128.481 760.439 165.664Z" stroke="#6246E5"/>
<path d="M761.824 153.188C761.824 192.886 753.559 228.8 740.22 254.772C726.868 280.77 708.511 296.673 688.375 296.673C668.239 296.673 649.882 280.77 636.53 254.772C623.191 228.8 614.926 192.886 614.926 153.188C614.926 113.491 623.191 77.576 636.53 51.6041C649.882 25.6061 668.239 9.70361 688.375 9.70361C708.511 9.70361 726.868 25.6061 740.22 51.6041C753.559 77.576 761.824 113.491 761.824 153.188Z" stroke="#6246E5"/>
<path d="M763.556 139.026C763.556 182.634 754.477 222.089 739.822 250.624C725.153 279.185 704.978 296.673 682.833 296.673C660.688 296.673 640.513 279.185 625.845 250.624C611.189 222.089 602.11 182.634 602.11 139.026C602.11 95.4174 611.189 55.9622 625.845 27.4275C640.513 -1.13348 660.688 -18.6211 682.833 -18.6211C704.978 -18.6211 725.153 -1.13348 739.822 27.4275C754.477 55.9622 763.556 95.4174 763.556 139.026Z" stroke="#6246E5"/>
</g>
</g>
<g opacity="0.1">
<mask id="mask1_243_156" style="mask-type:alpha" maskUnits="userSpaceOnUse" x="0" y="51" width="274" height="401">
<path d="M223.816 51.5859C251.154 51.5859 273.316 73.7478 273.316 101.086L273.316 451.5L0.534415 451.5L0.534423 101.086C0.534423 73.7478 22.6963 51.5859 50.0344 51.5859L223.816 51.5859Z" fill="url(#paint1_linear_243_156)" stroke="#6246E5"/>
</mask>
<g mask="url(#mask1_243_156)">
<path d="M134.932 555.249C115.365 555.249 97.5225 539.774 84.5426 514.465C71.5762 489.183 63.5415 454.221 63.5415 415.576C63.5415 376.931 71.5762 341.969 84.5426 316.687C97.5225 291.378 115.365 275.903 134.932 275.903C154.499 275.903 172.341 291.378 185.321 316.687C198.287 341.969 206.322 376.931 206.322 415.576C206.322 454.221 198.287 489.183 185.321 514.465C172.341 539.774 154.499 555.249 134.932 555.249Z" stroke="#6246E5"/>
<path d="M142.499 560.782C120.581 560.782 100.611 543.449 86.0903 515.136C71.5833 486.85 62.5958 447.738 62.5958 404.509C62.5958 361.28 71.5833 322.169 86.0904 293.883C100.611 265.57 120.581 248.237 142.499 248.237C164.417 248.237 184.388 265.57 198.908 293.883C213.415 322.169 222.403 361.28 222.403 404.509C222.403 447.738 213.415 486.85 198.908 515.136C184.388 543.449 164.417 560.782 142.499 560.782Z" stroke="#6246E5"/>
<path d="M148.648 566.316C124.64 566.316 102.778 547.331 86.8878 516.348C71.0114 485.392 61.1769 442.592 61.1769 395.288C61.1769 347.985 71.0114 305.184 86.8879 274.228C102.778 243.245 124.64 224.26 148.648 224.26C172.655 224.26 194.518 243.245 210.408 274.228C226.284 305.184 236.119 347.985 236.119 395.288C236.119 442.592 226.284 485.392 210.408 516.348C194.518 547.331 172.655 566.316 148.648 566.316Z" stroke="#6246E5"/>
<path d="M157.634 570.004C131.798 570.004 108.28 549.575 91.1922 516.256C74.1175 482.963 63.5418 436.935 63.5419 386.066C63.5419 335.198 74.1175 289.169 91.1922 255.877C108.28 222.558 131.798 202.128 157.634 202.128C183.47 202.128 206.988 222.558 224.076 255.877C241.151 289.169 251.727 335.198 251.727 386.066C251.727 436.935 241.151 482.963 224.076 516.256C206.988 549.575 183.47 570.004 157.634 570.004Z" stroke="#6246E5"/>
<path d="M166.384 573.693C138.785 573.693 113.671 551.869 95.4271 516.297C77.197 480.752 65.9066 431.611 65.9066 377.305C65.9066 322.998 77.197 273.858 95.4271 238.312C113.671 202.74 138.785 180.917 166.384 180.917C193.983 180.917 219.097 202.74 237.341 238.312C255.571 273.858 266.861 322.998 266.861 377.305C266.861 431.611 255.571 480.752 237.341 516.297C219.097 551.869 193.983 573.693 166.384 573.693Z" stroke="#6246E5"/>
<path d="M176.316 578.304C145.974 578.304 118.377 554.313 98.3361 515.237C78.3086 476.187 65.9065 422.205 65.9065 362.55C65.9065 302.896 78.3086 248.914 98.3361 209.864C118.377 170.787 145.974 146.796 176.316 146.796C206.658 146.796 234.255 170.787 254.296 209.864C274.324 248.914 286.726 302.896 286.726 362.55C286.726 422.205 274.324 476.187 254.296 515.237C234.255 554.313 206.658 578.304 176.316 578.304Z" stroke="#6246E5"/>
</g>
</g>
<defs>
<linearGradient id="paint0_linear_243_156" x1="673.217" y1="10.9528" x2="428.657" y2="248.643" gradientUnits="userSpaceOnUse">
<stop stop-color="#747DEF"/>
<stop offset="1" stop-color="#5E3BE1"/>
</linearGradient>
<linearGradient id="paint1_linear_243_156" x1="266.135" y1="335.43" x2="-53.5471" y2="248.79" gradientUnits="userSpaceOnUse">
<stop stop-color="#747DEF"/>
<stop offset="1" stop-color="#5E3BE1"/>
</linearGradient>
</defs>
</svg>

<svg width="717" height="452" fill="none" xmlns="http://www.w3.org/2000/svg"><path d="M717 50c0-27.614-22.386-50-50-50H40.585v452H667c27.614 0 50-22.386 50-50V50z" fill="#fff"/><g opacity=".1"><mask id="a" style="mask-type:alpha" maskUnits="userSpaceOnUse" x="566" y="0" width="152" height="391"><path d="M566.92 50c0-27.338 22.162-49.5 49.5-49.5H716.5v389.388H616.42c-27.338 0-49.5-22.162-49.5-49.5V50z" fill="url(#paint0_linear_243_156)" stroke="#6246E5"/></mask><g mask="url(#a)" stroke="#6246E5"><path d="M754.897 198.036c0 28.245-5.881 53.79-15.365 72.256-9.498 18.493-22.529 29.753-36.783 29.753-14.254 0-27.285-11.26-36.783-29.753-9.484-18.466-15.365-44.011-15.365-72.256 0-28.244 5.881-53.79 15.365-72.256 9.498-18.493 22.529-29.753 36.783-29.753 14.254 0 27.285 11.26 36.783 29.753 9.484 18.466 15.365 44.012 15.365 72.256z"/><path d="M756.975 187.245c0 31.597-6.579 60.177-17.191 80.84-10.626 20.689-25.216 33.308-41.191 33.308-15.976 0-30.566-12.619-41.192-33.308-10.612-20.663-17.191-49.243-17.191-80.84 0-31.596 6.579-60.177 17.191-80.84 10.626-20.689 25.216-33.308 41.192-33.308 15.975 0 30.565 12.619 41.191 33.308 10.612 20.663 17.191 49.244 17.191 80.84z"/><path d="M759.053 178.478c0 34.576-7.199 65.855-18.814 88.47-11.629 22.642-27.604 36.469-45.11 36.469s-33.481-13.827-45.11-36.469c-11.615-22.615-18.814-53.894-18.814-88.47s7.199-65.854 18.814-88.47c11.629-22.642 27.604-36.468 45.11-36.468s33.481 13.826 45.11 36.468c11.615 22.616 18.814 53.894 18.814 88.47z"/><path d="M760.439 165.664c0 37.184-7.742 70.822-20.235 95.147-12.506 24.35-29.694 39.234-48.539 39.234-18.845 0-36.032-14.884-48.539-39.234-12.492-24.325-20.234-57.963-20.234-95.147 0-37.183 7.742-70.821 20.234-95.146 12.507-24.35 29.694-39.234 48.539-39.234 18.845 0 36.033 14.884 48.539 39.234 12.493 24.325 20.235 57.963 20.235 95.146z"/><path d="M761.824 153.188c0 39.698-8.265 75.612-21.604 101.584-13.352 25.998-31.709 41.901-51.845 41.901s-38.493-15.903-51.845-41.901c-13.339-25.972-21.604-61.886-21.604-101.584 0-39.697 8.265-75.612 21.604-101.584 13.352-25.998 31.709-41.9 51.845-41.9s38.493 15.902 51.845 41.9c13.339 25.972 21.604 61.887 21.604 101.584z"/><path d="M763.556 139.026c0 43.608-9.079 83.063-23.734 111.598-14.669 28.561-34.844 46.049-56.989 46.049-22.145 0-42.32-17.488-56.988-46.049-14.656-28.535-23.735-67.99-23.735-111.598 0-43.609 9.079-83.064 23.735-111.599 14.668-28.56 34.843-46.048 56.988-46.048 22.145 0 42.32 17.488 56.989 46.048 14.655 28.535 23.734 67.99 23.734 111.599z"/></g></g><g opacity=".1"><mask id="b" style="mask-type:alpha" maskUnits="userSpaceOnUse" x="0" y="51" width="274" height="401"><path d="M223.816 51.586c27.338 0 49.5 22.162 49.5 49.5V451.5H.534V101.086c0-27.338 22.162-49.5 49.5-49.5h173.782z" fill="url(#paint1_linear_243_156)" stroke="#6246E5"/></mask><g mask="url(#b)" stroke="#6246E5"><path d="M134.932 555.249c-19.567 0-37.41-15.475-50.39-40.784-12.966-25.282-21-60.244-21-98.889 0-38.645 8.034-73.607 21-98.889 12.98-25.309 30.823-40.784 50.39-40.784s37.409 15.475 50.389 40.784c12.966 25.282 21.001 60.244 21.001 98.889 0 38.645-8.035 73.607-21.001 98.889-12.98 25.309-30.822 40.784-50.389 40.784z"/><path d="M142.499 560.782c-21.918 0-41.888-17.333-56.409-45.646-14.507-28.286-23.494-67.398-23.494-110.627s8.987-82.34 23.494-110.626c14.521-28.313 34.491-45.646 56.409-45.646s41.889 17.333 56.409 45.646c14.507 28.286 23.495 67.397 23.495 110.626s-8.988 82.341-23.495 110.627c-14.52 28.313-34.491 45.646-56.409 45.646z"/><path d="M148.648 566.316c-24.008 0-45.87-18.985-61.76-49.968-15.877-30.956-25.711-73.756-25.711-121.06 0-47.303 9.834-90.104 25.71-121.06 15.891-30.983 37.753-49.968 61.761-49.968 24.007 0 45.87 18.985 61.76 49.968 15.876 30.956 25.711 73.757 25.711 121.06 0 47.304-9.835 90.104-25.711 121.06-15.89 30.983-37.753 49.968-61.76 49.968z"/><path d="M157.634 570.004c-25.836 0-49.354-20.429-66.442-53.748-17.074-33.293-27.65-79.321-27.65-130.19 0-50.868 10.576-96.897 27.65-130.189 17.088-33.319 40.606-53.749 66.442-53.749 25.836 0 49.354 20.43 66.442 53.749 17.075 33.292 27.651 79.321 27.651 130.189 0 50.869-10.576 96.897-27.651 130.19-17.088 33.319-40.606 53.748-66.442 53.748z"/><path d="M166.384 573.693c-27.599 0-52.713-21.824-70.957-57.396-18.23-35.545-29.52-84.686-29.52-138.992 0-54.307 11.29-103.447 29.52-138.993 18.244-35.572 43.358-57.395 70.957-57.395 27.599 0 52.713 21.823 70.957 57.395 18.23 35.546 29.52 84.686 29.52 138.993 0 54.306-11.29 103.447-29.52 138.992-18.244 35.572-43.358 57.396-70.957 57.396z"/><path d="M176.316 578.304c-30.342 0-57.939-23.991-77.98-63.067-20.027-39.05-32.43-93.032-32.43-152.687 0-59.654 12.403-113.636 32.43-152.686 20.041-39.077 47.638-63.068 77.98-63.068 30.342 0 57.939 23.991 77.98 63.068 20.028 39.05 32.43 93.032 32.43 152.686 0 59.655-12.402 113.637-32.43 152.687-20.041 39.076-47.638 63.067-77.98 63.067z"/></g></g><defs><linearGradient id="paint0_linear_243_156" x1="673.217" y1="10.953" x2="428.657" y2="248.643" gradientUnits="userSpaceOnUse"><stop stop-color="#747DEF"/><stop offset="1" stop-color="#5E3BE1"/></linearGradient><linearGradient id="paint1_linear_243_156" x1="266.135" y1="335.43" x2="-53.547" y2="248.79" gradientUnits="userSpaceOnUse"><stop stop-color="#747DEF"/><stop offset="1" stop-color="#5E3BE1"/></linearGradient></defs></svg>
